theme/img/top/txt_o.svg

<svg width="122" height="131" viewBox="0 0 122 131" fill="none" xmlns="http://www.w3.org/2000/svg">
<path d="M61.7988 0.0996094C73.8105 0.0996094 84.4551 2.90723 93.7324 8.52246C102.717 13.9424 109.528 21.3643 114.167 30.7881C119.001 40.6514 121.418 51.9551 121.418 64.6992C121.418 75.3926 119.538 85.5 115.778 95.0215C112.946 102.199 108.723 108.596 103.107 114.211C92.1699 125.1 78.0586 130.544 60.7734 130.544C51.8379 130.544 43.3662 128.933 35.3584 125.71C24.6162 121.413 16.1445 114.113 9.94336 103.811C6.57422 98.2441 4.03516 91.6279 2.32617 83.9619C0.958984 77.9072 0.275391 71.6816 0.275391 65.2852C0.275391 54.4941 2.13086 44.3623 5.8418 34.8896C8.52734 27.9561 12.6045 21.8037 18.0732 16.4326C29.1084 5.54395 43.6836 0.0996094 61.7988 0.0996094ZM60.4805 25.8809C53.0586 25.8809 46.7842 28.4199 41.6572 33.498C38.6299 36.5254 36.4082 39.9434 34.9922 43.752C32.5508 50.3926 31.3301 57.4971 31.3301 65.0654C31.3301 72.7314 32.5752 79.8848 35.0654 86.5254C36.4814 90.334 38.752 93.8008 41.877 96.9258C46.8574 102.004 53.2051 104.543 60.9199 104.543C68.5371 104.543 74.7871 102.053 79.6699 97.0723C82.6973 94.0449 84.9678 90.6025 86.4814 86.7451C88.9717 80.1045 90.2168 73.0244 90.2168 65.5049C90.2168 57.5459 88.9717 50.2217 86.4814 43.5322C84.333 37.624 80.5732 33.0342 75.2021 29.7627C71.0518 27.1748 66.1445 25.8809 60.4805 25.8809Z" fill="url(#paint0_linear_3_311)"/>
<defs>
<linearGradient id="paint0_linear_3_311" x1="-132" y1="-40.8157" x2="675.828" y2="387.126" gradientUnits="userSpaceOnUse">
<stop stop-color="#001F63"/>
<stop offset="1" stop-color="#00E1EC"/>
</linearGradient>
</defs>
</svg>

<svg xmlns="http://www.w3.org/2000/svg" width="122" height="131" fill="none"><path fill="url(#a)" d="M61.799.1q18.018 0 31.933 8.422 13.477 8.13 20.435 22.266 7.251 14.795 7.251 33.911 0 16.04-5.64 30.323-4.247 10.766-12.671 19.189-16.405 16.333-42.334 16.333-13.403 0-25.415-4.834-16.112-6.446-25.415-21.899-5.053-8.35-7.617-19.85Q.276 74.88.276 65.286q0-16.186 5.566-30.395 4.028-10.4 12.231-18.457Q34.625.099 61.8.1m-1.32 25.78q-11.132 0-18.823 7.618-4.54 4.54-6.665 10.254-3.662 9.96-3.662 21.313 0 11.5 3.735 21.46 2.124 5.714 6.812 10.4 7.47 7.618 19.043 7.618 11.426 0 18.75-7.47 4.541-4.542 6.811-10.328 3.735-9.96 3.736-21.24 0-11.939-3.736-21.973-3.222-8.862-11.279-13.77-6.226-3.88-14.721-3.881"/><defs><linearGradient id="a" x1="-132" x2="675.828" y1="-40.816" y2="387.126" gradientUnits="userSpaceOnUse"><stop stop-color="#001F63"/><stop offset="1" stop-color="#00E1EC"/></linearGradient></defs></svg>
